!!!COM: Corelli, Arcangelo
!!!OTL: 
!!!ONM: Opus 6, No. 8
!!!OMV: 2
!!!CDT: 1653/2/17/-1713/1/8/
!!!OCY: Italia
**kern	**kern	**kern	**kern	**kern	**kern	**kern
*clefC	*clefG	*clefG	*clefG	*clefC	*clefG	*clefG
*k[b-]	*k[b-]	*k[b-]	*k[b-]	*k[b-]	*k[b-]	*k[b-]
*d:	*d:	*d:	*d:	*d:	*d:	*d:
*M4/2	*M4/2	*M4/2	*M4/2	*M4/2	*M4/2	*M4/2
=1	=1	=1	=1	=1	=1	=1
2GG	2r	2r	2r	2GG	2r	2r
1G	1.r	1.r	1.r	1G	1.r	1.r
2F#	.	.	.	2F#	.	.
=2	=2	=2	=2	=2	=2	=2
2G	2r	1.r	2r	2G	1.r	2r
2B-	1d	.	1.r	2B-	.	1d
1E-	.	.	.	1E-	.	.
.	2c	[2g	.	.	[2g	2c
=3	=3	=3	=3	=3	=3	=3
1D	2B-	2g]	2r	1D	2g]	2B-
.	2A	2f#	1dd	.	2f#	1dd
2E-	2.G	2g	.	2E-	2g	.
2E	.	[2gg	2cc#	2E	[2gg	2cc#
.	4g	.	.	.	.	.
=4	=4	=4	=4	=4	=4	=4
1D	2a	2gg]	2dd	1D	2gg]	2dd
.	2d	2ff#	1aa	.	2ff#	1aa
2GG	2d	1bb-	.	2GG	1bb-	.
[2G	2d	.	2gg	[2G	.	2gg
=5	=5	=5	=5	=5	=5	=5
2G]	2e	2.aa	2cc#	2G]	2.aa	2cc#
4F	2d	.	1dd	4F	.	1dd
4G	.	4bb-	.	4G	4bb-	.
2.A	2A	2ee	.	2.A	2ee	.
.	[2a	2ee-	[2cc	.	2ee-	[2cc
4G	.	.	.	4G	.	.
=6	=6	=6	=6	=6	=6	=6
4F#	2a]	2dd	2cc]	4F#	2dd	2cc]
4D	.	.	.	4D	.	.
2G	4g	1dd	1b-	2G	1dd	1b-
.	4f	.	.	.	.	.
1C	2e-	.	.	1C	.	.
.	2ee-	[2cc	4a	.	[2cc	4a
.	.	.	4g	.	.	4g
=7	=7	=7	=7	=7	=7	=7
1D	2a	2cc]	2f#	1D	2cc]	2f#
.	2f#	4b-	1dd	.	4b-	1dd
.	.	4a	.	.	4a	.
1E-	2b-	2g	.	1E-	2g	.
.	2g	[2ee-	4cc	.	[2ee-	4cc
.	.	.	4b-	.	.	4b-
=8	=8	=8	=8	=8	=8	=8
1.F	2cc	2ee-]	2a	1.F	2ee-]	2a
.	2f	2dd	1b-	.	2dd	1b-
.	2f	1cc	.	.	1cc	.
2F#	2d	.	[2a	2F#	.	[2a
=9	=9	=9	=9	=9	=9	=9
1G	2d	2b-	2a]	1G	2b-	2a]
.	2g	1b-	4g	.	1b-	4g
.	.	.	4f	.	.	4f
1C	2g	.	2e	1C	.	2e
.	2cc	2a-	[2f	.	2a-	[2f
=10	=10	=10	=10	=10	=10	=10
2BB	2dd	1g	2f]	2BB	1g	2f]
1c	2g	.	2e-	1c	.	2e-
.	2a	2f#	2d	.	2f#	2d
2B-	4b-	[2g	2dd	2B-	[2g	2dd
.	4B-	.	.	.	.	.
=11	=11	=11	=11	=11	=11	=11
2.A-	2c	2g]	2cc	2.A-	2g]	2cc
.	2cc	2f	1cc	.	2f	1cc
4A-	.	.	.	4A-	.	.
1D	2a	2f#	.	1D	2f#	.
.	2d	2g	2b-	.	2g	2b-
=12	=12	=12	=12	=12	=12	=12
1C#	1e	1.g	[2a	1C#	1.g	[2a
.	.	.	1.a]	.	.	1.a]
1D	1d	.	.	1D	.	.
.	.	2f#	.	.	2f#	.
=13	=13	=13	=13	=13	=13	=13
[2GG	[2B	[2g	[2g	[2GG	[2g	[2g
1.GG]	1.B]	1.g]	1.g]	1.GG]	1.g]	1.g]
==	==	==	==	==	==	==
*-	*-	*-	*-	*-	*-	*-
!!!RWG: This file only contains pitch and duration data.
!!!RWG: Transposing instruments are not transposed.
!!!RWG: Durations of rests and tied notes may be interpreted.
!!!RWG: Key is interpreted using the Humdrum key tool.
!!!SCA: 
!!!YOR: Chrysander Edition
!!!AGN: concerto grosso
!!!AFT: stage1
!!!ENC: F. Bennion
!!!END: 1997/04/15
!!!AST: baroque
!!!YEC: Copyright 1994, Center for Computer Assisted Research in the Humanities
!!!YEM: Rights to all derivative electronic formats reserved.
!!!YEM: Refer to licensing agreement for further details.
!!!YEN: United States of America
!!!EED: W.B. Hewlett
!!!KEY: 2302702375
!!!EMD: Converted from MuseData to Humdrum Aug 9, 1999, by Bret Aarden using muse2kern.
!!!VTS: 1833093887
